;FLAVOR:Marlin
;TIME:1208
;Filament used: 1.34776m
;Layer height: 0.15
;Generated with Cura_SteamEngine 4.0.0
M104 S235
M105
M109 S235
M82 ;absolute extrusion mode
G28 ;Home
G1 Z15.0 F6000 ;Move the platform down 15mm
;Prime the extruder
G92 E0
G1 F200 E3
G92 E0
G92 E0
G1 F1500 E-6.5
;LAYER_COUNT:40
;LAYER:-6
M107 P1
G0 F7200 X94.443 Y85.163 Z0.36
;TYPE:SUPPORT-INTERFACE
G1 F1500 E0
G1 F1350 X94.692 Y84.89 E0.04424
G1 X95.252 Y84.303 E0.14138
G1 X95.517 Y84.043 E0.18583
G1 X96.157 Y83.446 E0.29063
G1 X96.435 Y83.202 E0.33492
G1 X97.126 Y82.633 E0.4421
G1 X97.418 Y82.406 E0.48638
G1 X98.198 Y81.842 E0.60163
G1 X98.512 Y81.631 E0.64693
G1 X99.279 Y81.146 E0.75559
G1 X99.623 Y80.945 E0.8033
G1 X100.425 Y80.506 E0.91277
G1 X100.764 Y80.336 E0.95818
G1 X101.541 Y79.969 E1.06107
G1 X101.888 Y79.819 E1.10633
G1 X102.715 Y79.489 E1.21295
G1 X103.026 Y79.376 E1.25257
G1 X103.844 Y79.103 E1.35582
G1 X104.169 Y79.006 E1.39643
G1 X105.14 Y78.748 E1.51673
G1 X105.506 Y78.664 E1.56169
G1 X106.402 Y78.484 E1.67112
G1 X106.758 Y78.426 E1.71431
G1 X107.645 Y78.305 E1.8215
G1 X107.923 Y78.276 E1.85497
G1 X108.864 Y78.203 E1.96798
G1 X109.292 Y78.185 E2.01927
G1 X110.133 Y78.172 E2.11998
G1 X110.525 Y78.18 E2.16693
G1 X111.373 Y78.218 E2.26857
G1 X111.831 Y78.253 E2.32357
G1 X112.651 Y78.342 E2.42233
G1 X113.04 Y78.395 E2.46933
G1 X113.963 Y78.553 E2.58146
G1 X114.35 Y78.633 E2.62878
G1 X115.212 Y78.837 E2.73484
G1 X115.549 Y78.928 E2.77664
G1 X116.821 Y79.331 E2.9364
G1 X117.527 Y79.591 E3.02649
G1 X118.775 Y80.115 E3.18855
G1 X119.08 Y80.259 E3.22894
G1 X119.906 Y80.683 E3.34011
G1 X120.135 Y80.809 E3.37141
G1 X120.955 Y81.293 E3.48542
G1 X121.313 Y81.518 E3.53605
G1 X122.026 Y82.001 E3.63916
G1 X122.329 Y82.221 E3.684
G1 X123.085 Y82.805 E3.79838
G1 X123.343 Y83.017 E3.83837
G1 X123.983 Y83.575 E3.94003
G1 X124.297 Y83.868 E3.99146
G1 X124.922 Y84.483 E4.09645
G1 X125.215 Y84.793 E4.14752
G1 X125.824 Y85.474 E4.25691
G1 X126.025 Y85.714 E4.29439
G1 X126.599 Y86.44 E4.40521
G1 X126.806 Y86.72 E4.4469
G1 X127.326 Y87.468 E4.55598
G1 X127.507 Y87.743 E4.5954
G1 X128.008 Y88.564 E4.71056
G1 X128.16 Y88.833 E4.74756
G1 X128.574 Y89.612 E4.85319
G1 X128.766 Y90.007 E4.90578
G1 X129.095 Y90.73 E5.00089
G1 X129.248 Y91.092 E5.04794
G1 X129.575 Y91.939 E5.15666
G1 X129.681 Y92.245 E5.19543
G1 X129.974 Y93.172 E5.31184
G1 X130.07 Y93.511 E5.35403
G1 X130.274 Y94.333 E5.45544
G1 X130.367 Y94.758 E5.50753
G1 X130.525 Y95.606 E5.61081
G1 X130.591 Y96.045 E5.66397
G1 X130.699 Y96.94 E5.77191
G1 X130.729 Y97.267 E5.81123
G1 X130.782 Y98.133 E5.91511
G1 X130.794 Y98.566 E5.96698
G1 X130.791 Y99.496 E6.07833
G1 X130.778 Y99.864 E6.12242
G1 X130.731 Y100.641 E6.21563
G1 X130.691 Y101.074 E6.2677
G1 X130.573 Y102.029 E6.38291
G1 X130.526 Y102.334 E6.41986
G1 X130.367 Y103.187 E6.52376
G1 X130.28 Y103.587 E6.57277
G1 X130.076 Y104.411 E6.67441
G1 X129.961 Y104.816 E6.72483
G1 X129.713 Y105.6 E6.82328
G1 X129.588 Y105.967 E6.86971
G1 X129.26 Y106.827 E6.97991
G1 X129.134 Y107.126 E7.01876
G1 X128.767 Y107.937 E7.12535
G1 X128.602 Y108.276 E7.17049
G1 X128.17 Y109.095 E7.28136
G1 X127.983 Y109.424 E7.32668
G1 X127.462 Y110.271 E7.44574
G1 X127.254 Y110.585 E7.49084
G1 X126.753 Y111.299 E7.59528
G1 X126.541 Y111.582 E7.63762
G1 X125.95 Y112.323 E7.75111
G1 X125.78 Y112.522 E7.78245
G1 X125.146 Y113.226 E7.89588
G1 X124.931 Y113.453 E7.93332
G1 X124.214 Y114.155 E8.05347
G1 X123.992 Y114.362 E8.08981
G1 X123.327 Y114.941 E8.19539
G1 X123.023 Y115.189 E8.24237
G1 X122.276 Y115.764 E8.35524
G1 X121.983 Y115.974 E8.3984
G1 X121.313 Y116.427 E8.49524
G1 X120.955 Y116.652 E8.54587
G1 X120.142 Y117.133 E8.65898
G1 X119.906 Y117.263 E8.69124
G1 X119.01 Y117.719 E8.81162
G1 X118.692 Y117.868 E8.85366
G1 X117.837 Y118.239 E8.96526
G1 X117.505 Y118.37 E9.008
G1 X116.68 Y118.67 E9.11311
G1 X116.457 Y118.745 E9.14128
G1 X116.33 Y118.785 E9.15722
G1 X115.706 Y119.027 E9.23736
G1 X115.106 Y119.352 E9.31906
G1 X114.55 Y119.75 E9.40094
G1 X114.051 Y120.216 E9.48269
G1 X113.614 Y120.74 E9.56438
G1 X113.246 Y121.315 E9.64612
G1 X112.954 Y121.933 E9.72797
G1 X112.742 Y122.582 E9.80972
G1 X112.613 Y123.253 E9.89153
G1 X112.571 Y123.933 E9.97311
G1 X112.61 Y124.575 E10.05012
G1 X112.698 Y125.285 E10.13578
G1 X112.731 Y125.663 E10.18121
G1 X112.778 Y126.44 E10.27442
G1 X112.791 Y126.804 E10.31803
G1 X112.794 Y127.734 E10.42939
G1 X112.782 Y128.171 E10.48173
G1 X112.73 Y129.026 E10.5843
G1 X112.692 Y129.428 E10.63264
G1 X112.576 Y130.372 E10.74653
G1 X112.527 Y130.687 E10.7847
G1 X112.367 Y131.547 E10.88944
G1 X112.277 Y131.958 E10.93981
G1 X112.073 Y132.781 E11.04134
G1 X111.985 Y133.093 E11.08016
G1 X111.681 Y134.059 E11.20141
G1 X111.569 Y134.378 E11.24189
G1 X111.28 Y135.133 E11.33869
G1 X111.134 Y135.485 E11.38432
G1 X110.767 Y136.296 E11.49091
G1 X110.602 Y136.636 E11.53616
G1 X110.171 Y137.454 E11.64687
G1 X110.005 Y137.744 E11.68688
G1 X109.504 Y138.565 E11.80204
G1 X109.298 Y138.881 E11.8472
G1 X108.816 Y139.569 E11.94779
G1 X108.602 Y139.86 E11.99104
G1 X108.043 Y140.567 E12.09896
G1 X107.829 Y140.824 E12.139
G1 X107.218 Y141.508 E12.24882
G1 X106.931 Y141.812 E12.29888
G1 X106.214 Y142.514 E12.41902
G1 X105.992 Y142.721 E12.45537
G1 X105.327 Y143.3 E12.56095
G1 X105.023 Y143.548 E12.60792
G1 X104.276 Y144.123 E12.72079
G1 X103.983 Y144.333 E12.76396
G1 X103.313 Y144.786 E12.8608
G1 X102.955 Y145.011 E12.91142
G1 X102.135 Y145.495 E13.02544
G1 X101.906 Y145.622 E13.05679
G1 X101.01 Y146.078 E13.17717
G1 X100.692 Y146.227 E13.21922
G1 X99.837 Y146.598 E13.33081
G1 X99.524 Y146.723 E13.37117
G1 X98.697 Y147.023 E13.47651
G1 X98.309 Y147.15 E13.52539
G1 X97.527 Y147.383 E13.62309
G1 X97.213 Y147.466 E13.66198
G1 X96.376 Y147.664 E13.76496
G1 X95.961 Y147.751 E13.81574
G1 X95.04 Y147.909 E13.92762
G1 X94.668 Y147.96 E13.97258
G1 X93.668 Y148.064 E14.09296
G1 X93.311 Y148.09 E14.13582
G1 X92.541 Y148.123 E14.22811
G1 X92.196 Y148.13 E14.26942
G1 X91.282 Y148.119 E14.37887
G1 X90.864 Y148.101 E14.42897
G1 X89.923 Y148.028 E14.54198
G1 X89.645 Y147.998 E14.57546
G1 X88.659 Y147.863 E14.69462
G1 X88.312 Y147.803 E14.73678
G1 X87.398 Y147.616 E14.84849
G1 X87.14 Y147.556 E14.88021
G1 X86.169 Y147.298 E15.0005
G1 X85.844 Y147.201 E15.04112
G1 X84.981 Y146.913 E15.15005
G1 X84.653 Y146.791 E15.19195
G1 X83.747 Y146.426 E15.30891
G1 X83.438 Y146.288 E15.34943
G1 X82.76 Y145.966 E15.4393
G1 X82.425 Y145.798 E15.48417
G1 X81.623 Y145.359 E15.59365
G1 X81.279 Y145.158 E15.64135
G1 X80.502 Y144.667 E15.7514
G1 X80.213 Y144.472 E15.79315
G1 X79.449 Y143.921 E15.90594
G1 X79.167 Y143.703 E15.94862
G1 X78.469 Y143.13 E16.05675
G1 X78.214 Y142.908 E16.09723
G1 X77.592 Y142.333 E16.19865
G1 X77.253 Y142 E16.25555
G1 X76.627 Y141.344 E16.36412
G1 X76.435 Y141.132 E16.39837
G1 X75.803 Y140.385 E16.51553
G1 X75.544 Y140.056 E16.56566
G1 X75.071 Y139.42 E16.66057
G1 X74.859 Y139.118 E16.70475
G1 X74.338 Y138.323 E16.81856
G1 X74.122 Y137.967 E16.86842
G1 X73.696 Y137.216 E16.9718
G1 X73.52 Y136.881 E17.01711
G1 X73.101 Y136.025 E17.13123
G1 X72.954 Y135.696 E17.17437
G1 X72.638 Y134.938 E17.2727
G1 X72.534 Y134.668 E17.30735
G1 X72.204 Y133.723 E17.4272
G1 X72.091 Y133.363 E17.47238
G1 X71.849 Y132.498 E17.57993
G1 X71.762 Y132.139 E17.62416
G1 X71.592 Y131.363 E17.71928
G1 X71.508 Y130.909 E17.77456
G1 X71.365 Y129.962 E17.88923
G1 X71.323 Y129.619 E17.93061
G1 X71.25 Y128.795 E18.02966
G1 X71.229 Y128.462 E18.06961
G1 X71.199 Y127.457 E18.19
G1 X71.2 Y127.106 E18.23203
G1 X71.231 Y126.174 E18.34368
G1 X71.248 Y125.887 E18.37811
G1 X71.325 Y125.03 E18.48114
G1 X71.368 Y124.667 E18.5249
G1 X71.522 Y123.671 E18.64558
G1 X71.589 Y123.319 E18.68848
G1 X71.785 Y122.421 E18.79854
G1 X71.863 Y122.11 E18.83693
G1 X72.098 Y121.277 E18.94056
G1 X72.207 Y120.929 E18.98423
G1 X72.507 Y120.071 E19.09306
G1 X72.622 Y119.768 E19.13187
G1 X72.962 Y118.948 E19.23815
G1 X73.122 Y118.593 E19.28478
G1 X73.541 Y117.742 E19.39836
G1 X73.736 Y117.376 E19.44801
G1 X74.123 Y116.696 E19.54169
G1 X74.337 Y116.342 E19.59122
G1 X74.89 Y115.501 E19.71174
G1 X75.084 Y115.227 E19.75194
G1 X75.635 Y114.489 E19.86222
G1 X75.855 Y114.215 E19.90429
G1 X76.438 Y113.528 E20.01218
G1 X76.692 Y113.249 E20.05736
G1 X77.252 Y112.662 E20.1545
G1 X77.52 Y112.399 E20.19946
G1 X78.157 Y111.805 E20.30374
G1 X78.435 Y111.561 E20.34803
G1 X79.126 Y110.992 E20.45521
G1 X79.427 Y110.759 E20.50079
G1 X80.198 Y110.201 E20.61475
G1 X80.512 Y109.99 E20.66004
G1 X81.279 Y109.505 E20.7687
G1 X81.599 Y109.317 E20.81314
G1 X82.366 Y108.895 E20.91796
G1 X82.676 Y108.737 E20.95962
G1 X83.567 Y108.316 E21.07762
G1 X83.854 Y108.192 E21.11505
G1 X84.643 Y107.876 E21.21682
G1 X85 Y107.744 E21.26239
G1 X85.733 Y107.499 E21.35493
G1 X86.354 Y107.249 E21.43509
G1 X86.951 Y106.915 E21.517
G1 X87.499 Y106.509 E21.59866
G1 X87.993 Y106.037 E21.68047
G1 X88.423 Y105.506 E21.76228
G1 X88.782 Y104.926 E21.84396
G1 X89.065 Y104.304 E21.92578
G1 X89.268 Y103.653 E22.00743
G1 X89.387 Y102.979 E22.08938
G1 X89.42 Y102.298 E22.17102
G1 X89.367 Y101.621 E22.25232
G1 X89.325 Y101.278 E22.2937
G1 X89.25 Y100.436 E22.39492
G1 X89.229 Y100.103 E22.43487
G1 X89.199 Y99.098 E22.55526
G1 X89.2 Y98.747 E22.59729
G1 X89.231 Y97.815 E22.70894
G1 X89.248 Y97.528 E22.74337
G1 X89.325 Y96.671 E22.84639
G1 X89.376 Y96.256 E22.89646
G1 X89.526 Y95.287 E23.01387
G1 X89.592 Y94.941 E23.05604
G1 X89.762 Y94.165 E23.15116
G1 X89.849 Y93.806 E23.19539
G1 X90.095 Y92.929 E23.30445
G1 X90.204 Y92.581 E23.34812
G1 X90.535 Y91.636 E23.46801
G1 X90.638 Y91.366 E23.50261
G1 X90.954 Y90.608 E23.60094
G1 X91.101 Y90.279 E23.64409
G1 X91.52 Y89.423 E23.7582
G1 X91.736 Y89.017 E23.81327
G1 X92.123 Y88.337 E23.90695
G1 X92.336 Y87.983 E23.95642
G1 X92.868 Y87.173 E24.07245
G1 X93.071 Y86.884 E24.11474
G1 X93.545 Y86.248 E24.20971
G1 X93.803 Y85.919 E24.25978
G1 X94.443 Y85.163 E24.37838
G0 F7200 X94.4 Y85.213
G1 F1350 X94.4 Y147.988 E31.89484
G0 F7200 X93.6 Y148.069
G1 F1350 X93.6 Y86.177 E39.30557
G0 F7200 X92.8 Y87.276
G1 F1350 X92.8 Y148.112 E46.58986
G0 F7200 X92 Y148.127
G1 F1350 X92 Y88.553 E53.72304
G0 F7200 X91.2 Y90.076
G1 F1350 X91.2 Y148.115 E60.67242
G0 F7200 X90.4 Y148.065
G1 F1350 X90.4 Y92.021 E67.38293
G0 F7200 X89.6 Y94.904
G1 F1350 X89.6 Y147.991 E73.73939
G0 F7200 X88.8 Y147.882
G1 F1350 X88.8 Y104.886 E78.88758
G0 F7200 X88 Y106.028
G1 F1350 X88 Y147.739 E83.8819
G0 F7200 X87.2 Y147.569
G1 F1350 X87.2 Y106.73 E88.77182
G0 F7200 X86.4 Y107.223
G1 F1350 X86.4 Y147.359 E93.57757
G0 F7200 X85.6 Y147.119
G1 F1350 X85.6 Y107.543 E98.31626
G0 F7200 X84.8 Y107.817
G1 F1350 X84.8 Y146.845 E102.98933
G0 F7200 X84 Y146.527
G1 F1350 X84 Y108.133 E107.5865
G0 F7200 X83.2 Y108.489
G1 F1350 X83.2 Y146.174 E112.09876
G0 F7200 X82.4 Y145.784
G1 F1350 X82.4 Y108.877 E116.51788
G0 F7200 X81.6 Y109.316
G1 F1350 X81.6 Y145.345 E120.83187
G0 F7200 X80.8 Y144.855
G1 F1350 X80.8 Y109.807 E125.02839
G0 F7200 X80 Y110.344
G1 F1350 X80 Y144.318 E129.09632
G0 F7200 X79.2 Y143.728
G1 F1350 X79.2 Y110.934 E133.02296
G0 F7200 X78.4 Y111.591
G1 F1350 X78.4 Y143.069 E136.79202
G0 F7200 X77.6 Y142.34
G1 F1350 X77.6 Y112.324 E140.38603
G0 F7200 X76.8 Y113.135
G1 F1350 X76.8 Y141.525 E143.78535
G0 F7200 X76 Y140.617
G1 F1350 X76 Y114.044 E146.96711
G0 F7200 X75.2 Y115.071
G1 F1350 X75.2 Y139.593 E149.90329
G0 F7200 X74.4 Y138.417
G1 F1350 X74.4 Y116.246 E152.55796
G0 F7200 X73.6 Y117.631
G1 F1350 X73.6 Y137.033 E154.88109
G0 F7200 X72.8 Y135.326
G1 F1350 X72.8 Y119.338 E156.79544
G0 F7200 X72 Y121.624
G1 F1350 X72 Y133.037 E158.16199
G0 F7200 X71.2 Y127.49
G1 F1350 X71.2 Y127.106 E158.20797
G0 F7200 X95.2 Y147.882
G1 F1350 X95.2 Y84.357 E165.81423
G0 F7200 X96 Y83.592
G1 F1350 X96 Y147.743 E173.49544
G0 F7200 X96.8 Y147.564
G1 F1350 X96.8 Y82.901 E181.23796
G0 F7200 X97.6 Y82.274
G1 F1350 X97.6 Y147.362 E189.03137
G0 F7200 X98.4 Y147.121
G1 F1350 X98.4 Y81.706 E196.86394
G0 F7200 X99.2 Y81.195
G1 F1350 X99.2 Y146.841 E204.72416
G0 F7200 X100 Y146.528
G1 F1350 X100 Y80.738 E212.60162
G0 F7200 X100.8 Y80.318
G1 F1350 X100.8 Y146.177 E220.48735
G0 F7200 X101.6 Y145.778
G1 F1350 X101.6 Y79.943 E228.3702
G0 F7200 X102.4 Y79.614
G1 F1350 X102.4 Y145.339 E236.23988
G0 F7200 X103.2 Y144.858
G1 F1350 X103.2 Y79.317 E244.08753
G0 F7200 X104 Y79.056
G1 F1350 X104 Y144.321 E251.90213
G0 F7200 X104.8 Y143.72
G1 F1350 X104.8 Y78.838 E259.67087
G0 F7200 X105.6 Y78.645
G1 F1350 X105.6 Y143.063 E267.38406
G0 F7200 X106.4 Y142.332
G1 F1350 X106.4 Y78.484 E275.02899
G0 F7200 X107.2 Y78.365
G1 F1350 X107.2 Y141.528 E282.59191
G0 F7200 X108 Y140.619
G1 F1350 X108 Y78.27 E290.05736
G0 F7200 X108.8 Y78.207
G1 F1350 X108.8 Y139.591 E297.40726
G0 F7200 X109.6 Y138.408
G1 F1350 X109.6 Y78.18 E304.61875
G0 F7200 X110.4 Y78.178
G1 F1350 X110.4 Y137.02 E311.66428
G0 F7200 X111.2 Y135.326
G1 F1350 X111.2 Y78.211 E318.50303
G0 F7200 X112 Y78.272
G1 F1350 X112 Y133.04 E325.06076
G0 F7200 X112.8 Y122.405
G1 F1350 X112.8 Y78.363 E330.3342
G0 F7200 X113.6 Y78.491
G1 F1350 X113.6 Y120.762 E335.39558
G0 F7200 X114.4 Y119.891
G1 F1350 X114.4 Y78.645 E340.33423
G0 F7200 X115.2 Y78.835
G1 F1350 X115.2 Y119.302 E345.1796
G0 F7200 X116 Y118.913
G1 F1350 X116 Y79.071 E349.95015
G0 F7200 X116.8 Y79.325
G1 F1350 X116.8 Y118.627 E354.65603
G0 F7200 X117.6 Y118.333
G1 F1350 X117.6 Y79.622 E359.29115
G0 F7200 X118.4 Y79.958
G1 F1350 X118.4 Y117.995 E363.84556
G0 F7200 X119.2 Y117.623
G1 F1350 X119.2 Y80.321 E368.31198
G0 F7200 X120 Y80.735
G1 F1350 X120 Y117.212 E372.6796
G0 F7200 X120.8 Y116.744
G1 F1350 X120.8 Y81.202 E376.93528
G0 F7200 X121.6 Y81.713
G1 F1350 X121.6 Y116.233 E381.06858
G0 F7200 X122.4 Y115.669
G1 F1350 X122.4 Y82.276 E385.06694
G0 F7200 X123.2 Y82.9
G1 F1350 X123.2 Y115.045 E388.91587
G0 F7200 X124 Y114.355
G1 F1350 X124 Y83.591 E392.59944
G0 F7200 X124.8 Y84.363
G1 F1350 X124.8 Y113.582 E396.09802
G0 F7200 X125.6 Y112.722
G1 F1350 X125.6 Y85.224 E399.39054
G0 F7200 X126.4 Y86.189
G1 F1350 X126.4 Y111.759 E402.4522
G0 F7200 X127.2 Y110.662
G1 F1350 X127.2 Y87.287 E405.25104
G0 F7200 X128 Y88.551
G1 F1350 X128 Y109.395 E407.74683
G0 F7200 X128.8 Y107.865
G1 F1350 X128.8 Y90.082 E409.8761
G0 F7200 X129.6 Y92.012
G1 F1350 X129.6 Y105.932 E411.54283
G0 F7200 X130.4 Y103.01
G1 F1350 X130.4 Y94.936 E412.50959
G0 F7200 X118.443 Y79.976
;TIME_ELAPSED:164.462092
;LAYER:-5
G0 X118.443 Y79.976 Z0.585
;TYPE:SUPPORT
G1 F2100 X117.526 Y79.591 E412.58401
G1 X116.82 Y79.331 E412.64032
G1 X115.548 Y78.928 E412.74017
G1 X115.211 Y78.836 E412.76631
G1 X114.988 Y78.784 E412.78345
G1 X130.186 Y93.982 E414.3919
G1 X130.273 Y94.332 E414.41889
G1 X130.366 Y94.757 E414.45145
G1 X130.524 Y95.605 E414.516
G1 X130.589 Y96.044 E414.54921
G1 X130.674 Y96.732 E414.60109
G1 X112.238 Y78.297 E416.55217
G1 X111.83 Y78.252 E416.58289
G1 X111.372 Y78.218 E416.61726
G1 X110.524 Y78.179 E416.68079
G1 X110.131 Y78.172 E416.7102
G1 X109.855 Y78.177 E416.73086
G1 X130.792 Y99.113 E418.94664
G1 X130.79 Y99.496 E418.9753
G1 X130.777 Y99.863 E419.00278
G1 X130.729 Y100.641 E419.06111
G1 X130.69 Y101.073 E419.09357
G1 X130.668 Y101.252 E419.10707
G1 X107.713 Y78.297 E421.53647
G1 X107.644 Y78.305 E421.54167
G1 X106.756 Y78.425 E421.60872
G1 X106.401 Y78.483 E421.63564
G1 X105.764 Y78.611 E421.68427
G1 X130.362 Y103.209 E424.28755
G1 X130.278 Y103.586 E424.31645
G1 X130.075 Y104.411 E424.38003
G1 X129.96 Y104.815 E424.41147
G1 X129.899 Y105.009 E424.42669
G1 X103.959 Y79.069 E427.172
G1 X103.843 Y79.103 E427.18104
G1 X103.025 Y79.375 E427.24555
G1 X102.714 Y79.488 E427.27032
G1 X102.287 Y79.659 E427.30474
G1 X129.313 Y106.686 E430.16504
G1 X129.259 Y106.826 E430.17627
G1 X129.133 Y107.125 E430.20055
G1 X128.766 Y107.937 E430.26723
G1 X128.614 Y108.25 E430.29327
G1 X100.722 Y80.357 E433.24522
G1 X100.424 Y80.506 E433.27015
G1 X99.622 Y80.944 E433.33854
G1 X99.277 Y81.146 E433.36846
G1 X99.26 Y81.158 E433.37002
G1 X127.808 Y109.706 E436.39134
G1 X127.46 Y110.271 E436.441
G1 X127.253 Y110.585 E436.46914
G1 X126.912 Y111.073 E436.51369
G1 X97.898 Y82.059 E439.58434
G1 X97.417 Y82.405 E439.62868
G1 X97.125 Y82.632 E439.65636
G1 X96.623 Y83.046 E439.70505
